X:5
T: Jack Murphy's
C: BB
R: reel
Q: 1/8=350
M: 4/4
L: 1/8
K: Dm
A | "Dm"dAFE D2 A,D| "C"C2EG "Am"AEGA|"Dm"dAFE DEFG|"Dm"AD"Bb"BD "C"cGEG |
"Dm"dAFE D2 A,D|"C"C2EG "Am"AEGA|"Dm"dedc "Am"AGcA|"C"GEDC "Dm"D3 :|
E | "F"F2 AF cFAF|"Dm"dcde fede|"F"fgaf "C"egec|"Gm"BGAF "C7"GECE |
"F"F2 AF cFAF|"Dm"d3 e f3 g|"Dm"af (3fef "Bb"dB (3BAB|"Am7"AGEC "Dm"D3 :|
